X:1
T:Tola nueche toi (CT 224)
C:Tradicional
L:1/8
Q:1/4=80
M:3/8
I:linebreak $
K:G
V:1 treble 
V:1
 d2 d | c>dc | (B>A)G | d2 d | c>dc | B3 | B>BB | A>BA | (G2 F) | c2 c | B>BA | G3 | B>BB | A>BA |$ %14
 (G2 F) | c>cc | B>BA | G2 z || %18
